icons/24x24_feed_filled.svg

<svg xmlns="http://www.w3.org/2000/svg" width="24" height="24" viewBox="0 0 24 24">
  <path d="M5,3 L19,3 C20.1045695,3 21,3.8954305 21,5 L21,11 C21,12.1045695 20.1045695,13 19,13 L5,13 C3.8954305,13 3,12.1045695 3,11 L3,5 C3,3.8954305 3.8954305,3 5,3 Z M21,21 L3,21 L3,17 C3,15.8954305 3.8954305,15 5,15 L19,15 C20.1045695,15 21,15.8954305 21,17 L21,21 Z M11,7 L11,9 L17,9 L17,7 L11,7 Z M7,7 L7,9 L9,9 L9,7 L7,7 Z M11,19 L11,21 L17,21 L17,19 L11,19 Z M7,19 L7,21 L9,21 L9,19 L7,19 Z"/>
</svg>

<svg width="24" height="24" fill="none" xmlns="http://www.w3.org/2000/svg"><path d="M5 3h14a2 2 0 0 1 2 2v6a2 2 0 0 1-2 2H5a2 2 0 0 1-2-2V5a2 2 0 0 1 2-2Zm16 18H3v-4a2 2 0 0 1 2-2h14a2 2 0 0 1 2 2v4ZM11 7v2h6V7h-6ZM7 7v2h2V7H7Zm4 12v2h6v-2h-6Zm-4 0v2h2v-2H7Z" fill="#000"/></svg>
